X:1
T:A Little Talk with Jesus
T:A Little Talk with Jesus
T:William Howard Doane
T:Frances Jane (Fanny) Crosby, 1875
T:Public Domain Courtesy of the Cyber Hymnal™
T:Public Domain Courtesy of the Cyber Hymnal™
C:William Howard Doane
Z:Public Domain
Z:Courtesy of the Cyber Hymnal™
%%score ( 1 2 ) ( 3 4 )
L:1/8
Q:1/4=100
M:6/8
K:G
V:1 treble 
V:2 treble 
V:3 bass 
V:4 bass 
V:1
 [DG] | [GB]2 [Gc] [GB]2 [DA] | [DG]3 D2 [DG] | [CA]2 [CA] (FE)[CD] | [B,D]3- [B,D]2 [DG] | %5
w: 1.~A|lit- tle talk with|Je- sus, It|smoothes the rug- * ged|road; * It|
w: 2.~A|lit- tle talk with|Je- sus, A-|lone in se- * cret|prayer, * It|
w: 3.~I’ll|trust and wait with|pa- tience Till|my ap- point- * ed|time, * And|
 [GB]2 [GB] [Gc]2 [Gc] | [Gd]3 [GB]2 [EG] | [DF]2 [DA] (AE)[=CF] | D3- D2 D | %9
w: seems to help me|on- ward When|faint- ing ’neath * my|load; * When,|
w: gives me strength and|cour- age, Life’s|ma- ny toils * to|bear; * And|
w: glo- ry in the|know- ledge That|such a trust * is|mine; * Then,|
 [Dc]2 [Dc] [CE]2 [DF] | [CG]3 [B,D]2 [DG] | [GB]2 [GB] (dc)[GB] | %12
w: worn by care and|sor- row, My|eyes with tears * are|
w: though I some- times|fal- ter, Be-|cause the way * is|
w: where no hearts are|wea- ry, No|eyes with tears * are|
 [FA]3- [FA]2 !fermata![Fd]/[Ac]/ | [GB][GB][GB] ([GB][DA])[DG] | [EG]3 !fermata![CE]2 [CE]/[CE]/ | %15
w: dim, * There is|no- thing can give * me|com- fort Like a|
w: dim, * There is|no- thing can cheer * me|on- ward Like a|
w: dim, * He will|ta- lk with me * for|ev- er, A- nd|
 [B,D] [DG]2 [DF]2 [DA] | [DG]3- [DG]2 ||"^Refrain" G | [GB] [GB]2 [Gc]2 [GB] | [GB]3 [DG]2 [GB] | %20
w: lit- tle talk with|Him. *||||
w: lit- tle talk with|Him. *|A|lit- tle talk with|Je- sus, A|
w: I will talk with|Him. *||||
 [Gd] [Gd]2 [Ge]2 [Gd] | [Fd]3 !fermata![FA]2 [Fd]/[Ac]/ | [GB][GB][GB] [GB][DA][DG] | %23
w: |||
w: lit- tle talk with|Je- sus; There is|no- thing that giv- eth me|
w: |||
 [EG]3 !fermata![CE]2 [CE]/[CE]/ | [B,D] [DG]2 [DF]2 [DA] | [DG]3- [DG]2 |] %26
w: |||
w: com- fort Like a|lit- tle talk with|Him. *|
w: |||
V:2
 x | x6 | x3 D2 x | x3 C2 x | x6 | x6 | x6 | x3 ^C2 x | D3- D2 D | x6 | x6 | x3 G2 x | x6 | x6 | %14
 x6 | x6 | x5 || G | x6 | x6 | x6 | x6 | x6 | x6 | x6 | x5 |] %26
V:3
 [G,B,] | [G,D]2 [G,E] [G,D]2 [G,C] | [G,B,]3 [G,B,]2 [B,,G,] | [D,F,]2 [D,F,] (A,G,)[D,F,] | %4
 [G,,G,]3- [G,,G,]2 [G,B,] | [G,D]2 [G,D] [G,E]2 [G,E] | [G,B,]3 [G,D]2 [G,B,] | %7
 A,2 [A,,F,] [A,,E,]2 [A,,G,] | [D,F,]3- [D,F,]2 [D,F,] | [D,F,]2 [D,F,] [D,G,]2 [D,A,] | %10
 [G,,G,]3 [G,,G,]2 [G,,G,B,] | [G,D]2 [G,D] (B,E)[G,D] | [D,D]3- [D,D]2 !fermata![D,A,]/[D,D]/ | %13
 [G,D][G,D][G,D] (DC)[G,B,] | [C,C]3 !fermata![C,G,]2 [C,G,]/[C,G,]/ | %15
 [D,G,] [D,B,]2 [D,A,]2 [D,C] | [G,B,]3- [G,B,]2 || [G,B,] | [G,D] [G,D]2 [G,E]2 [G,D] | %19
 [G,D]3 [G,B,]2 [G,D] | [G,B,] [G,B,]2 [G,C]2 [G,B,] | %21
 [D,A,]3 !fermata![E,D]2 !fermata![D,A,]/[D,D]/ | [G,D][G,D][G,D] [G,D][G,C][G,B,] | %23
 [C,C]3 !fermata![C,G,]2 [C,G,]/[C,G,]/ | [D,G,] [D,B,]2 [D,A,]2 [D,C] | [G,B,]3- [G,B,]2 |] %26
V:4
 x | x6 | x6 | x3 D,2 x | x6 | x6 | x6 | A,2 x4 | x6 | x6 | x6 | x3 G,2 x | x6 | x3 G,2 x | x6 | %15
 x6 | x5 || x | x6 | x6 | x6 | x6 | x6 | x6 | x6 | x5 |] %26

